X:1
T:Title
%%score { ( 1 3 ) | ( 2 4 ) }
L:1/8
Q:1/4=100
M:4/4
K:Db
V:1 treble nm="Grand Piano"
V:3 treble 
V:2 bass 
V:4 bass 
V:1
 [FA]3 [DF] [_FB] [=FA]3 | [Ad]3 [Ae] [Bd] [GB]3 | [FA]3 [DF] [_FB][=FA][EG][DF] | %3
w: C.~Austin~Miles * * *|||
 [CE]2 [GB]2 [FA]2 [EG]2 | [A,FA]3 [A,DF] [_FB] [=FA]3 | d3 A B d3 | A3 F [CB][CA][CG][CE] | %7
w: ||||
[M:2/4] D4 | [CA]3 [CG] |[M:4/4] F F2 _F =F2 [FA]2 | d2- [Gd-]2 [Fd]2 [Ad][Ad] | d d2 d c2 B2 | %12
w: |||||
[M:3/4] [FA]6 |[M:1/4] [A,DF]2 |[M:4/4] [A,FA] [A,EG]2 [A,=DF] [A,EG]3 [GB] | %15
w: |||
 [GB] [FA]2 [_F=G] [D=FA]3 [DAd] | [=Gd]3 [DGB] [DGB] [EGc]2 [DGB] |[M:3/4] [CA]6 | %18
w: |||
[M:2/4] [CA]3 [CG] |[M:4/4] F F2 _F =F2 [FA]2 | d6 z2 | d d2 d c2 B2 |[M:3/4] [FA]6 | %23
w: |||||
[M:1/4] [DFA]2 |[M:9/8] B =A2 B d2- d B2 | B A2 A d2- dcB |[M:4/4] A B2 d [DF]2 [CE]2 | %27
w: ||||
[M:3/4] D6 |] %28
w: |
V:2
 [D,A,]3 [D,A,] [D,G,] [D,A,]3 | [F,_C]3 [F,C] [G,B,] [G,D]3 | %2
 [D,D]3 [D,A,] [D,=G,][D,A,][C,A,][D,A,] | [A,,A,]2 [A,,A,]2 B,,2 C,2 | D,3 D, [D,=G,] [D,A,]3 | %5
 [F,_CD]3 [F,C=D] [G,B,E][K:treble] [=G,B,_F]3 | %6
 [A,DF]3[K:bass] [A,D] [A,,E,][A,,F,][A,,A,][A,,G,] |[M:2/4] [D,F,]4 | [A,,E,]3 [A,,A,] | %9
[M:4/4] [D,A,D] [D,A,D]2 [D,=G,D] [D,A,D]2 [D,D]2 | A,2 B,2 A,2 [F,_C][F,C] | %11
 [G,B,G] [G,B,G]2 [G,B,G] [G,CG]2 [G,DG]2 |[M:3/4] z2 CB, A,2 |[M:1/4] D,2 | %14
[M:4/4] A,, A,,2 A,, A,,B,,C,[C,A,] | [D,A,] [D,D]2 [D,D] D,E,F,_F, | [E,B,]3 E, E, E,2 E, | %17
[M:3/4] A,6 |[M:2/4] [A,,E,]3 [A,,A,] |[M:4/4] [D,A,D] [D,A,D]2 [D,=G,D] [D,A,D]2 [D,D]2 | %20
 A,2 B,2 A,2 [F,_C][F,C] | [G,B,G] [G,B,G]2 [G,B,G] [G,CG]2 [G,DG]2 |[M:3/4] z2 CB, A,2 | %23
[M:1/4] D,2 |[M:9/8][K:treble] [G,DG] [G,CG]2 [G,DG] [=G,B,_F]2- [G,B,F] [G,DF]2 | %25
 [A,DF] [A,DF]2 [A,DF] [=A,D_F]2- [A,DF][=G,DF][G,DF] | %26
[M:4/4] [A,DF] [A,DF]2 [A,F][K:bass] [A,,A,]2 [A,,G,]2 |[M:3/4] [D,F,]6 |] %28
V:3
 x8 | x8 | x8 | z4 A,4 | x8 | x8 | x8 |[M:2/4] x4 | x4 |[M:4/4] x8 | F2 z2 z4 | x8 | %12
[M:3/4] D2 z2 z2 |[M:1/4] x2 |[M:4/4] x8 | x8 | x8 |[M:3/4] x6 |[M:2/4] x4 |[M:4/4] x8 | %20
 F2 G2 F2 [Ad][Ad] | x8 |[M:3/4] D2 z2 z2 |[M:1/4] x2 |[M:9/8] x9 | x9 |[M:4/4] x8 |[M:3/4] x6 |] %28
V:4
 x8 | x8 | x8 | x8 | x8 | x5[K:treble] x3 | x3[K:bass] x5 |[M:2/4] x4 | x4 |[M:4/4] x8 | D,6 z2 | %11
 x8 |[M:3/4] D,6 |[M:1/4] x2 |[M:4/4] x8 | x8 | x8 |[M:3/4] x6 |[M:2/4] x4 |[M:4/4] x8 | D,6 z2 | %21
 x8 |[M:3/4] D,6 |[M:1/4] x2 |[M:9/8][K:treble] x9 | x9 |[M:4/4] x4[K:bass] x4 |[M:3/4] x6 |] %28

